X: 20433
M: C|
L: 1/8
K: D
|: fg |\
agfe dcBA | B2G2 G2ga | bagf gfed | c2A2 A2fg |\
afaf bgbg | afaf bfbg | agbg fedc | d2d2 d2 :|


